app/public/images/heart.svg

<svg xmlns="http://www.w3.org/2000/svg" viewBox="-25 -30 140 140"><g fill="#FFF"><path d="M31.028 41l8.237-18.332 11.062 36.201 8.739-17.869h27.927c1.694-3.746 3.007-7.804 3.007-11.911 0-13.372-10.841-24.213-24.214-24.213-8.753 0-16.353 4.689-20.786 11.613-4.434-6.924-12.033-11.613-20.786-11.613-13.373 0-24.214 10.841-24.214 24.213 0 4.107 1.313 8.165 3.007 11.911h28.021zM60.934 44l-11.26 23-10.939-35.799-5.763 12.799h-28.536c5.173 9.672 13.668 17.901 21.575 25.233 6.048 5.609 12.387 10.944 18.989 15.891 6.602-4.948 12.941-10.283 18.989-15.891 7.907-7.332 16.403-15.561 21.575-25.233h-24.63z"/></g></svg>

<svg xmlns="http://www.w3.org/2000/svg" xmlns:xlink="http://www.w3.org/1999/xlink" viewBox="-25 -30 140 140" xml:space="preserve"><g fill='#FFF'><path d="M31.028,41l8.237-18.332l11.062,36.201L59.066,41h27.927C88.687,37.254,90,33.196,90,29.089   C90,15.717,79.159,4.876,65.786,4.876c-8.753,0-16.353,4.689-20.786,11.613C40.566,9.565,32.967,4.876,24.214,4.876   C10.841,4.876,0,15.717,0,29.089C0,33.196,1.313,37.254,3.007,41H31.028z"/><path d="M60.934,44l-11.26,23L38.735,31.201L32.972,44H4.436c5.173,9.672,13.668,17.901,21.575,25.233   C32.059,74.842,38.398,80.177,45,85.124c6.602-4.948,12.941-10.283,18.989-15.891C71.896,61.901,80.392,53.672,85.564,44H60.934z"/></g></svg>
